packages/core/src/svgs/tokens/mono/PAAL.svg

<svg width="24" height="24" viewBox="0 0 24 24" fill="none" xmlns="http://www.w3.org/2000/svg">
<path d="M6.41789 20.2209C5.87776 20.2115 5.36105 19.9987 4.97097 19.625C4.5809 19.2513 4.34618 18.7441 4.3137 18.2048C4.30829 18.195 4.30013 18.1867 4.2902 18.1814C3.81998 18.0168 3.44969 17.7111 3.19108 17.2821C3.01546 16.9903 2.90928 16.662 2.88074 16.3227C2.85222 15.9832 2.90208 15.6419 3.0265 15.3248C3.02842 15.3166 3.02837 15.3081 3.02632 15.2998C3.02428 15.2917 3.0203 15.2842 3.01475 15.2777C2.78418 14.9557 2.64266 14.5786 2.60448 14.1844C2.5663 13.7901 2.6328 13.3928 2.79726 13.0325C2.83841 12.9268 2.9207 12.8268 2.97361 12.7211C2.9824 12.7049 2.98449 12.6858 2.97947 12.6682C2.88246 12.3593 2.85429 12.033 2.89694 11.7121C2.93959 11.3912 3.05203 11.0836 3.22634 10.8108C3.23046 10.8037 3.23263 10.7956 3.23263 10.7874C3.23263 10.779 3.23046 10.7709 3.22634 10.7638C2.97592 10.2816 2.91242 9.72393 3.04802 9.19781C3.18362 8.6717 3.50876 8.21418 3.96105 7.91312C3.89879 7.54133 3.94688 7.15944 4.0994 6.8147C4.25193 6.46996 4.50217 6.1775 4.81918 5.97351C4.82996 5.96596 4.83913 5.95638 4.8462 5.94528C4.85326 5.93419 4.85806 5.9218 4.86032 5.90884C4.89842 5.57166 5.02432 5.25036 5.22543 4.97704C5.42655 4.70372 5.69586 4.48795 6.00646 4.35127L6.04173 4.32777C6.05104 4.3158 6.05712 4.30163 6.05937 4.28662C6.13647 3.83996 6.37085 3.43561 6.72013 3.14672C7.0694 2.85781 7.51051 2.7034 7.96372 2.71142C7.97912 2.71153 7.99439 2.70846 8.00855 2.70238C8.02271 2.69632 8.03546 2.68738 8.04601 2.67614C8.34361 2.31065 8.77127 2.0747 9.23917 2.01785C10.2032 1.9003 10.9378 2.3705 11.3375 3.21689C11.3904 3.32857 11.4139 3.43436 11.4139 3.54604V20.4677C11.4139 20.5325 11.4021 20.5971 11.3845 20.6559C11.29 20.9443 11.1296 21.2068 10.9159 21.4223C10.7022 21.6378 10.4412 21.8006 10.1537 21.8976C9.86606 21.9947 9.55981 22.0232 9.25919 21.9811C8.95865 21.939 8.67203 21.8274 8.42217 21.655C8.26348 21.5375 8.09302 21.5727 7.91669 21.5199C7.42407 21.3799 6.99453 21.0749 6.70003 20.6559C6.61186 20.5384 6.54721 20.3913 6.48256 20.2561C6.47733 20.2447 6.46913 20.2349 6.45879 20.2276C6.44845 20.2203 6.43635 20.2161 6.42377 20.215L6.41789 20.2209Z" fill="white"/>
<path d="M8.25744 18.3986C8.2927 17.8226 7.6109 17.8285 7.558 18.3398C7.54734 18.5917 7.46396 18.835 7.31794 19.0406C7.17191 19.246 6.96948 19.4048 6.73513 19.4977C6.5588 19.5682 6.39423 19.5859 6.21202 19.5565C5.96475 19.5281 5.72996 19.4325 5.5331 19.2803C5.33625 19.1279 5.18483 18.9247 5.09526 18.6925C5.02307 18.479 5.00095 18.2517 5.03061 18.0283C5.04236 17.8344 4.91307 17.6756 4.71322 17.6169C4.40758 17.5228 4.12545 17.4641 3.89035 17.2172C3.42013 16.7058 3.35548 16.1239 3.71402 15.4774C3.74928 15.4127 3.75516 15.3246 3.73166 15.2188C3.71143 15.141 3.67086 15.07 3.6141 15.0131C3.51153 14.907 3.42267 14.7885 3.34961 14.6605C3.24412 14.4748 3.18671 14.2656 3.18261 14.0521C3.1785 13.8385 3.22783 13.6275 3.32609 13.4378C3.40251 13.2791 3.52006 13.144 3.61998 13.0029C3.76692 12.7854 3.57884 12.5326 3.52594 12.3153C3.44852 12.0094 3.484 11.6859 3.62585 11.4042C3.73166 11.1985 3.88448 11.0515 3.98439 10.8341C3.99585 10.81 4.00131 10.7835 4.00028 10.7569C3.99925 10.7303 3.99179 10.7044 3.97852 10.6812C3.74341 10.3051 3.50242 9.89946 3.61998 9.42933C3.74341 8.93558 4.03141 8.60056 4.49575 8.41835C4.66032 8.3537 4.90718 8.28904 5.08351 8.33018C5.6654 8.4595 5.96516 8.81215 6.15912 9.32935C6.21789 9.48803 6.39423 9.63505 6.57056 9.57621C6.74689 9.51751 6.92321 9.35884 6.86443 9.1648C6.76419 8.75364 6.54231 8.38227 6.22775 8.09916C5.91318 7.81605 5.52056 7.63436 5.10115 7.57785C4.95421 7.56021 4.80726 7.57198 4.66032 7.55434C4.6537 7.5536 4.64743 7.55099 4.64223 7.54682C4.63703 7.54267 4.63311 7.53711 4.63093 7.53083C4.60689 7.42839 4.60689 7.32176 4.63093 7.21931C4.73085 6.79612 4.99535 6.58452 5.37151 6.39644C5.58898 6.29064 5.57723 6.04378 5.57723 5.83218C5.58311 5.57945 5.74769 5.3032 5.92402 5.12687C6.08271 4.96817 6.31194 4.89177 6.52941 4.83299C6.70574 4.77422 6.79978 4.61552 6.80566 4.42743C6.80634 4.15616 6.90574 3.89442 7.08529 3.69108C7.26483 3.48774 7.51225 3.3567 7.78134 3.32243C8.37499 3.22252 8.74528 3.6986 8.85107 4.23347C8.88635 4.40393 8.88046 4.54498 9.07443 4.60376C9.38594 4.70955 9.69739 4.57437 9.6387 4.19233C9.61579 4.01105 9.5704 3.83335 9.50347 3.66334C9.37099 3.35558 9.17002 3.08215 8.91574 2.86398C8.91249 2.85533 8.91132 2.84602 8.91234 2.83683C8.91336 2.82764 8.91653 2.81882 8.92161 2.81108C8.92616 2.80401 8.93217 2.798 8.93924 2.79345C9.21549 2.58773 9.52706 2.55834 9.86197 2.60537C10.0324 2.62887 10.197 2.71116 10.3557 2.84047C10.6673 3.08734 10.826 3.46938 10.826 3.86318V20.0737C10.826 20.7967 10.4086 21.3316 9.67394 21.3903C9.55051 21.4021 9.40939 21.3903 9.26251 21.3491C9.00389 21.2905 8.8452 21.067 8.60421 20.9789C8.5665 20.9657 8.52661 20.9597 8.48666 20.9613C7.94005 20.973 7.51686 20.7144 7.22885 20.1853C7.21489 20.1601 7.21076 20.1305 7.21726 20.1022C7.22378 20.074 7.24046 20.0493 7.26411 20.0326C7.85188 19.6447 8.20454 19.1274 8.25744 18.4045V18.3986Z" fill="white"/>
<path fill-rule="evenodd" clip-rule="evenodd" d="M19.7313 18.1751C20.0007 18.0706 20.2471 17.9137 20.4558 17.7136C20.6645 17.5135 20.8317 17.274 20.9475 17.0091C21.0633 16.7441 21.1256 16.4588 21.1307 16.1697C21.1358 15.8806 21.0836 15.5933 20.9772 15.3245C20.9737 15.3171 20.9717 15.3091 20.9717 15.3009C20.9717 15.2928 20.9737 15.2847 20.9772 15.2775C21.5298 14.4428 21.5473 13.5906 21.0361 12.7266C21.0307 12.7189 21.0269 12.7104 21.0248 12.7012C21.0229 12.6921 21.0226 12.6828 21.0243 12.6736C21.0243 12.6266 21.042 12.5796 21.0595 12.5325L21.089 12.415C21.1888 11.8449 21.089 11.31 20.7774 10.8104C20.7733 10.8032 20.7711 10.7952 20.7711 10.7869C20.7711 10.7787 20.7733 10.7706 20.7774 10.7633C21.0215 10.2854 21.0834 9.73503 20.9514 9.21474C20.8195 8.69451 20.5028 8.24008 20.0604 7.93626C20.0527 7.93265 20.0463 7.92677 20.042 7.91941C20.0379 7.91204 20.036 7.90357 20.0368 7.89512C20.0925 7.52831 20.0424 7.15323 19.8925 6.81387C19.7426 6.47449 19.4991 6.18489 19.1905 5.979C19.1762 5.96989 19.1642 5.95782 19.155 5.94363C19.1459 5.92942 19.1399 5.91343 19.1376 5.89671C19.0981 5.56223 18.9722 5.24379 18.7722 4.97274C18.5722 4.7017 18.3052 4.48738 17.9973 4.35089C17.9827 4.34304 17.9699 4.33216 17.9598 4.31899C17.9496 4.30583 17.9423 4.29066 17.9385 4.27449C17.8573 3.84045 17.6287 3.44779 17.2913 3.16292C16.9539 2.87803 16.5285 2.7184 16.087 2.71104C16.0341 2.71104 15.9872 2.71104 15.9461 2.6699C15.6169 2.29372 15.223 2.07625 14.7646 2.02335C14.1239 1.94107 13.5891 2.10564 13.1424 2.52294C12.8896 2.75805 12.5898 3.16949 12.5898 3.53978V20.4556C12.5898 20.5497 12.6075 20.6378 12.6487 20.726C12.802 21.1381 13.0908 21.4859 13.4678 21.7123C13.8449 21.9387 14.2876 22.0303 14.7234 21.9721C15.0526 21.9357 15.3666 21.8142 15.6345 21.6195C15.705 21.5724 15.7931 21.5606 15.8754 21.5606C15.9343 21.5488 15.9813 21.5488 16.0283 21.5313C16.616 21.3784 17.0686 21.0435 17.3918 20.5261L17.4684 20.3675L17.5271 20.2499C17.5309 20.242 17.5367 20.2351 17.5439 20.23C17.5511 20.2248 17.5594 20.2215 17.5682 20.2206C18.0979 20.2058 18.6041 19.9983 18.9915 19.6368C19.3789 19.2752 19.6211 18.7848 19.6724 18.2574C19.6734 18.2395 19.6794 18.2222 19.6898 18.2077C19.7003 18.1932 19.7145 18.1818 19.7313 18.1751ZM15.176 4.25097C15.1525 4.44493 15.0585 4.61539 14.8527 4.64478C14.5824 4.68004 14.2885 4.58012 14.312 4.25097C14.3356 3.97722 14.4144 3.71109 14.5437 3.46863C14.6731 3.22618 14.8501 3.01246 15.0643 2.84034C15.0675 2.83498 15.069 2.8289 15.069 2.82272C15.069 2.81652 15.0675 2.81044 15.0643 2.80508L15.0526 2.79333C14.8948 2.68523 14.7134 2.61682 14.5235 2.59394C14.3336 2.57105 14.1411 2.59437 13.9621 2.66189C13.7833 2.72942 13.6234 2.83915 13.496 2.98176C13.3686 3.12438 13.2775 3.29565 13.2306 3.48101C13.1835 3.6397 13.1835 3.82191 13.1835 3.99236V19.7974C13.1835 20.2088 13.207 20.485 13.2658 20.6202C13.323 20.7727 13.4108 20.9119 13.5239 21.0292C13.6369 21.1466 13.7729 21.2394 13.9232 21.3022C14.0735 21.3651 14.2352 21.3963 14.398 21.3943C14.5609 21.3922 14.7216 21.3568 14.8704 21.2903C14.9468 21.2608 15.0173 21.2021 15.0878 21.1492C15.1996 21.0669 15.3053 20.9846 15.4346 20.9728H15.4935C15.611 20.9612 15.7285 20.9553 15.8461 20.9258C16.0529 20.8759 16.2454 20.7788 16.4085 20.6422C16.5716 20.5056 16.701 20.333 16.7865 20.1383V20.1029C16.7814 20.0928 16.7732 20.0845 16.763 20.0795C16.4591 19.9126 16.2032 19.6702 16.02 19.3758C15.8368 19.0815 15.7324 18.7449 15.7167 18.3985C15.7043 18.2986 15.7248 18.1974 15.7756 18.1105C15.9284 17.8754 16.2693 17.9165 16.4221 18.1339C16.475 18.2162 16.4809 18.328 16.4926 18.4278V18.4808C16.5455 18.9333 16.8453 19.3036 17.2567 19.48C17.6798 19.6562 18.1795 19.5211 18.5086 19.2448C18.8261 18.9686 19.0141 18.5983 19.0023 18.1869V18.1046C18.9907 17.9929 18.9789 17.8812 19.0376 17.7872C19.1376 17.6343 19.2787 17.5991 19.4374 17.5638L19.5608 17.5345C19.7583 17.4782 19.9401 17.3773 20.0921 17.2393C20.2442 17.1014 20.3624 16.9301 20.4374 16.739C20.5126 16.548 20.5425 16.3421 20.5249 16.1375C20.5075 15.9329 20.443 15.7351 20.3366 15.5596C20.1602 15.2657 20.3014 15.107 20.4894 14.9013L20.5071 14.8777C20.8656 14.4839 20.9067 13.9079 20.6892 13.4436C20.6168 13.2942 20.5238 13.1558 20.413 13.0321C20.2719 12.8559 20.3425 12.6913 20.4248 12.5091L20.4307 12.4856C20.6069 12.0917 20.5482 11.6333 20.313 11.2748L20.2132 11.1395C20.078 10.9633 19.9427 10.7869 20.1073 10.5401C20.2191 10.3755 20.2955 10.2285 20.3425 10.0934C20.4718 9.74655 20.4189 9.34101 20.2307 9.0295C20.0134 8.65921 19.6959 8.43585 19.2728 8.35945C18.6261 8.24189 18.0737 8.74149 17.8974 9.31166C17.821 9.54673 17.58 9.67016 17.3507 9.56442C17.1333 9.46444 17.0745 9.27641 17.1627 9.00599C17.31 8.54846 17.6083 8.1545 18.0087 7.88862C18.409 7.62273 18.888 7.50069 19.3667 7.54245C19.3903 7.54245 19.4021 7.53658 19.3962 7.51307C19.4065 7.28393 19.3446 7.05733 19.219 6.86534C19.0935 6.67336 18.9109 6.52573 18.6968 6.44334C18.444 6.32578 18.4381 6.14945 18.4322 5.94962C18.4322 5.8732 18.4263 5.79092 18.4029 5.70863C18.3617 5.5115 18.2661 5.32986 18.1269 5.18438C17.9877 5.03891 17.8104 4.93545 17.6152 4.88576C17.4625 4.8505 17.3213 4.7976 17.2391 4.65065C17.1939 4.54878 17.1699 4.4388 17.1686 4.32739C17.1568 4.23335 17.1509 4.13931 17.1097 4.04525C17.0377 3.83619 16.9033 3.65424 16.7246 3.52392C16.5459 3.39361 16.3317 3.32118 16.1106 3.31644C15.5933 3.27529 15.2289 3.79839 15.1701 4.25685L15.176 4.25097Z" fill="white"/>
<path d="M15.5285 6.11389C15.6843 6.11389 15.8338 6.05196 15.9441 5.94173C16.0544 5.83151 16.1162 5.68201 16.1162 5.52613C16.1162 5.37024 16.0544 5.22074 15.9441 5.11051C15.8338 5.00029 15.6843 4.93835 15.5285 4.93835C15.3726 4.93835 15.2231 5.00029 15.1129 5.11051C15.0026 5.22074 14.9407 5.37024 14.9407 5.52613C14.9407 5.68201 15.0026 5.83151 15.1129 5.94173C15.2231 6.05196 15.3726 6.11389 15.5285 6.11389ZM17.2918 7.87718C17.4476 7.87718 17.5971 7.81526 17.7074 7.70504C17.8176 7.5948 17.8795 7.4453 17.8795 7.28942C17.8795 7.13354 17.8176 6.98404 17.7074 6.8738C17.5971 6.76358 17.4476 6.70165 17.2918 6.70165C17.1359 6.70165 16.9864 6.76358 16.8761 6.8738C16.766 6.98404 16.704 7.13354 16.704 7.28942C16.704 7.4453 16.766 7.5948 16.8761 7.70504C16.9864 7.81526 17.1359 7.87718 17.2918 7.87718ZM14.3529 7.87718C14.5089 7.87718 14.6584 7.81526 14.7686 7.70504C14.8788 7.5948 14.9407 7.4453 14.9407 7.28942C14.9407 7.13354 14.8788 6.98404 14.7686 6.8738C14.6584 6.76358 14.5089 6.70165 14.3529 6.70165C14.1971 6.70165 14.0475 6.76358 13.9374 6.8738C13.8271 6.98404 13.7651 7.13354 13.7651 7.28942C13.7651 7.4453 13.8271 7.5948 13.9374 7.70504C14.0475 7.81526 14.1971 7.87718 14.3529 7.87718ZM14.9407 11.4037C15.2525 11.4037 15.5515 11.2799 15.772 11.0595C15.9924 10.839 16.1162 10.54 16.1162 10.2283C16.1162 9.9164 15.9924 9.61743 15.772 9.39703C15.5515 9.17656 15.2525 9.0527 14.9407 9.0527C14.629 9.0527 14.3299 9.17656 14.1095 9.39703C13.8891 9.61743 13.7651 9.9164 13.7651 10.2283C13.7651 10.54 13.8891 10.839 14.1095 11.0595C14.3299 11.2799 14.629 11.4037 14.9407 11.4037ZM17.8795 11.4037C18.0354 11.4037 18.1849 11.3419 18.2952 11.2316C18.4054 11.1214 18.4673 10.9719 18.4673 10.8159C18.4673 10.6601 18.4054 10.5106 18.2952 10.4004C18.1849 10.2901 18.0354 10.2283 17.8795 10.2283C17.7237 10.2283 17.5742 10.2901 17.4639 10.4004C17.3537 10.5106 17.2918 10.6601 17.2918 10.8159C17.2918 10.9719 17.3537 11.1214 17.4639 11.2316C17.5742 11.3419 17.7237 11.4037 17.8795 11.4037ZM14.9407 13.167C15.0967 13.167 15.2462 13.1052 15.3563 12.9949C15.4666 12.8846 15.5285 12.7351 15.5285 12.5793C15.5285 12.4234 15.4666 12.2739 15.3563 12.1637C15.2462 12.0534 15.0967 11.9915 14.9407 11.9915C14.7848 11.9915 14.6353 12.0534 14.5251 12.1637C14.4149 12.2739 14.3529 12.4234 14.3529 12.5793C14.3529 12.7351 14.4149 12.8846 14.5251 12.9949C14.6353 13.1052 14.7848 13.167 14.9407 13.167ZM16.9979 14.9303C17.2318 14.9303 17.456 14.8374 17.6214 14.6722C17.7866 14.5068 17.8795 14.2825 17.8795 14.0487C17.8795 13.8149 17.7866 13.5907 17.6214 13.4253C17.456 13.26 17.2318 13.167 16.9979 13.167C16.7641 13.167 16.5399 13.26 16.3745 13.4253C16.2092 13.5907 16.1162 13.8149 16.1162 14.0487C16.1162 14.2825 16.2092 14.5068 16.3745 14.6722C16.5399 14.8374 16.7641 14.9303 16.9979 14.9303ZM19.0551 14.9303C19.211 14.9303 19.3605 14.8684 19.4706 14.7582C19.5809 14.6479 19.6429 14.4984 19.6429 14.3426C19.6429 14.1867 19.5809 14.0372 19.4706 13.9269C19.3605 13.8168 19.211 13.7548 19.0551 13.7548C18.8992 13.7548 18.7497 13.8168 18.6394 13.9269C18.5293 14.0372 18.4673 14.1867 18.4673 14.3426C18.4673 14.4984 18.5293 14.6479 18.6394 14.7582C18.7497 14.8684 18.8992 14.9303 19.0551 14.9303ZM14.6468 16.6937C14.8807 16.6937 15.1049 16.6007 15.2703 16.4354C15.4356 16.2701 15.5285 16.0458 15.5285 15.812C15.5285 15.5782 15.4356 15.3539 15.2703 15.1885C15.1049 15.0233 14.8807 14.9303 14.6468 14.9303C14.413 14.9303 14.1888 15.0233 14.0234 15.1885C13.8581 15.3539 13.7651 15.5782 13.7651 15.812C13.7651 16.0458 13.8581 16.2701 14.0234 16.4354C14.1888 16.6007 14.413 16.6937 14.6468 16.6937ZM17.2918 17.2814C17.4476 17.2814 17.5971 17.2195 17.7074 17.1092C17.8176 16.999 17.8795 16.8495 17.8795 16.6937C17.8795 16.5378 17.8176 16.3883 17.7074 16.278C17.5971 16.1677 17.4476 16.1059 17.2918 16.1059C17.1359 16.1059 16.9864 16.1677 16.8761 16.278C16.766 16.3883 16.704 16.5378 16.704 16.6937C16.704 16.8495 16.766 16.999 16.8761 17.1092C16.9864 17.2195 17.1359 17.2814 17.2918 17.2814ZM14.3529 19.0446C14.5089 19.0446 14.6584 18.9828 14.7686 18.8725C14.8788 18.7623 14.9407 18.6128 14.9407 18.457C14.9407 18.301 14.8788 18.1515 14.7686 18.0413C14.6584 17.9312 14.5089 17.8692 14.3529 17.8692C14.1971 17.8692 14.0475 17.9312 13.9374 18.0413C13.8271 18.1515 13.7651 18.301 13.7651 18.457C13.7651 18.6128 13.8271 18.7623 13.9374 18.8725C14.0475 18.9828 14.1971 19.0446 14.3529 19.0446Z" fill="white"/>
</svg>

<svg xmlns="http://www.w3.org/2000/svg" width="24" height="24" fill="none" viewBox="0 0 24 24">
    <path fill="#fff" d="M6.418 20.22a2.146 2.146 0 0 1-2.104-2.015.1.1 0 0 0-.024-.024c-.47-.164-.84-.47-1.099-.899a2.22 2.22 0 0 1-.164-1.957.05.05 0 0 0-.012-.047 2.25 2.25 0 0 1-.218-2.245c.041-.106.124-.206.177-.312a.07.07 0 0 0 .005-.053 2.22 2.22 0 0 1 .247-1.857.05.05 0 0 0 0-.047 2.204 2.204 0 0 1 .735-2.85 1.93 1.93 0 0 1 .858-1.94.1.1 0 0 0 .041-.065A1.94 1.94 0 0 1 6.006 4.35l.036-.023a.1.1 0 0 0 .017-.041A1.9 1.9 0 0 1 7.964 2.71a.11.11 0 0 0 .082-.035 1.82 1.82 0 0 1 1.193-.658c.964-.118 1.699.353 2.098 1.199a.75.75 0 0 1 .077.329v16.922c0 .064-.012.13-.03.188a1.95 1.95 0 0 1-2.962.999c-.159-.117-.329-.082-.505-.135a2.23 2.23 0 0 1-1.217-.864c-.088-.118-.153-.265-.217-.4a.07.07 0 0 0-.06-.041z"/>
    <path fill="#fff" d="M8.257 18.399c.036-.576-.646-.57-.699-.06a1.3 1.3 0 0 1-.823 1.159.94.94 0 0 1-.523.058 1.37 1.37 0 0 1-1.117-.864 1.5 1.5 0 0 1-.064-.664c.011-.194-.118-.352-.318-.411-.305-.094-.588-.153-.823-.4-.47-.511-.535-1.093-.176-1.74q.053-.098.018-.258a.45.45 0 0 0-.118-.206 1.8 1.8 0 0 1-.264-.352 1.28 1.28 0 0 1-.024-1.223c.077-.159.194-.294.294-.435.147-.218-.041-.47-.094-.688a1.3 1.3 0 0 1 .1-.91c.106-.207.258-.353.358-.57a.17.17 0 0 0-.005-.154c-.236-.376-.477-.782-.359-1.252.123-.493.411-.828.876-1.01.164-.065.411-.13.588-.089.581.13.881.482 1.075 1 .059.158.235.305.412.246.176-.058.352-.217.293-.411a2.1 2.1 0 0 0-1.763-1.587c-.147-.018-.294-.006-.44-.024a.04.04 0 0 1-.03-.023.7.7 0 0 1 0-.312c.1-.423.364-.634.74-.823.218-.105.206-.352.206-.564.006-.253.17-.529.347-.705.159-.159.388-.235.605-.294.177-.059.27-.217.277-.406a1.12 1.12 0 0 1 .975-1.105c.594-.1.964.377 1.07.911.035.17.03.312.223.37.312.107.623-.029.565-.41a2.2 2.2 0 0 0-.136-.53 2.2 2.2 0 0 0-.587-.799.06.06 0 0 1 .023-.07c.276-.206.588-.236.923-.189.17.024.335.106.494.235.311.247.47.63.47 1.023v16.21c0 .724-.417 1.259-1.152 1.317-.123.012-.265 0-.411-.04-.26-.06-.418-.283-.659-.371a.3.3 0 0 0-.117-.018c-.547.012-.97-.247-1.258-.776a.12.12 0 0 1 .035-.152c.588-.388.94-.906.993-1.629z"/>
    <path fill="#fff" fill-rule="evenodd" d="M19.731 18.175a2.193 2.193 0 0 0 1.246-2.85.05.05 0 0 1 0-.047c.553-.835.57-1.687.06-2.551a.07.07 0 0 1-.013-.053c0-.047.018-.094.035-.141l.03-.118c.1-.57 0-1.105-.312-1.605a.05.05 0 0 1 0-.047 2.21 2.21 0 0 0-.717-2.827.04.04 0 0 1-.018-.017.04.04 0 0 1-.005-.024 1.95 1.95 0 0 0-.846-1.916.12.12 0 0 1-.053-.082 1.94 1.94 0 0 0-1.14-1.546.12.12 0 0 1-.06-.077 1.916 1.916 0 0 0-1.851-1.563c-.053 0-.1 0-.14-.041q-.495-.566-1.182-.647c-.641-.082-1.176.083-1.623.5-.252.235-.552.646-.552 1.017v16.916q-.001.14.059.27a1.94 1.94 0 0 0 2.074 1.246c.33-.036.644-.158.911-.353a.43.43 0 0 1 .241-.058c.06-.012.106-.012.153-.03a2.2 2.2 0 0 0 1.364-1.005l.076-.159.06-.117a.05.05 0 0 1 .04-.03 2.175 2.175 0 0 0 2.104-1.963.09.09 0 0 1 .06-.082M15.176 4.251c-.024.194-.117.364-.323.394-.27.035-.564-.065-.541-.394a2.03 2.03 0 0 1 .752-1.41.03.03 0 0 0 .005-.018.03.03 0 0 0-.005-.018l-.011-.012a1.187 1.187 0 0 0-1.822.688c-.047.159-.047.34-.047.511v15.805c0 .412.023.688.082.823a1.193 1.193 0 0 0 1.604.67c.077-.03.147-.088.218-.14.112-.083.217-.165.347-.177h.058c.118-.012.236-.018.353-.047a1.38 1.38 0 0 0 .94-.788v-.035a.05.05 0 0 0-.023-.024 2.02 2.02 0 0 1-1.046-1.68.46.46 0 0 1 .059-.289c.152-.235.493-.194.646.024.053.082.059.194.07.294v.053c.053.452.353.823.765.999.423.176.922.041 1.252-.235.317-.276.505-.647.493-1.058v-.082c-.011-.112-.023-.224.036-.318.1-.153.24-.188.4-.223l.123-.03a1.334 1.334 0 0 0 .776-1.974c-.177-.294-.036-.453.152-.659l.018-.023c.359-.394.4-.97.182-1.434a1.8 1.8 0 0 0-.276-.412c-.141-.176-.07-.34.012-.523l.006-.023a1.27 1.27 0 0 0-.118-1.211l-.1-.136c-.135-.176-.27-.352-.106-.599q.167-.245.236-.447a1.25 1.25 0 0 0-.112-1.063 1.34 1.34 0 0 0-.958-.67c-.647-.118-1.2.381-1.376.952-.076.235-.317.358-.546.252-.218-.1-.276-.288-.188-.558a2.12 2.12 0 0 1 2.204-1.464c.023 0 .035-.005.03-.029a1.09 1.09 0 0 0-.7-1.07c-.253-.117-.259-.294-.265-.493a1 1 0 0 0-.03-.241 1.08 1.08 0 0 0-.787-.823c-.152-.035-.294-.088-.376-.235a.8.8 0 0 1-.07-.324c-.012-.094-.018-.188-.06-.282a1.08 1.08 0 0 0-.998-.729c-.518-.04-.882.482-.94.94z" clip-rule="evenodd"/>
    <path fill="#fff" d="M15.529 6.114a.588.588 0 1 0 0-1.176.588.588 0 0 0 0 1.176m1.763 1.763a.588.588 0 1 0 0-1.176.588.588 0 0 0 0 1.176m-2.94 0a.588.588 0 1 0 .001-1.175.588.588 0 0 0 0 1.175m.589 3.527a1.176 1.176 0 1 0 0-2.352 1.176 1.176 0 0 0 0 2.352m2.938 0a.588.588 0 1 0 0-1.176.588.588 0 0 0 0 1.176m-2.938 1.763a.587.587 0 1 0 0-1.174.587.587 0 0 0 0 1.174m2.057 1.763a.882.882 0 1 0 0-1.764.882.882 0 0 0 0 1.764m2.057 0a.587.587 0 1 0 0-1.174.587.587 0 0 0 0 1.174m-4.408 1.764a.882.882 0 1 0 0-1.764.882.882 0 0 0 0 1.764m2.645.587a.588.588 0 1 0 0-1.175.588.588 0 0 0 0 1.175m-2.94 1.764a.587.587 0 1 0 .002-1.175.587.587 0 0 0-.001 1.175"/>
</svg>
